packages/icons/src/svg/component-kit-positive.svg

<svg xmlns="http://www.w3.org/2000/svg" viewBox="0 0 16 16">
  <g fill="none">
    <path fill="#000" d="M8,16 C3.582,16 0,12.418 0,8 C0,3.582 3.582,0 8,0 C12.418,0 16,3.582 16,8 C16,12.418 12.418,16 8,16 Z"/>
    <path fill="#FFF" d="M5.6909,10.6621 C6.0839,10.9701 6.5779,11.1541 7.1149,11.1541 C7.7689,11.1541 8.3589,10.8821 8.7789,10.4451 L8.1479,9.8131 L9.1529,8.8081 C9.2809,8.6811 9.2809,8.4711 9.1529,8.3421 C9.0239,8.2141 8.8149,8.2141 8.6859,8.3421 L7.6809,9.3471 L6.6329,8.2991 L7.6379,7.2941 C7.7669,7.1661 7.7669,6.9551 7.6379,6.8281 C7.5099,6.6991 7.2999,6.6991 7.1709,6.8281 L6.1669,7.8321 L5.5139,7.1801 C5.0769,7.6001 4.8049,8.1901 4.8049,8.8441 C4.8049,9.3841 4.9909,9.8811 5.3019,10.2741 L3.8779,11.6991 C3.7559,11.6781 3.6329,11.6871 3.5199,11.7261 C2.0469,9.9631 1.7319,7.4691 2.7979,5.3581 C4.1619,2.6581 7.4099,1.4441 10.2089,2.5811 L9.8599,3.2711 L11.4439,2.9021 L10.8009,1.4071 L10.4499,2.1021 C7.3839,0.8311 3.8179,2.1501 2.3199,5.1171 C1.1539,7.4261 1.5029,10.1521 3.1179,12.0791 C2.9459,12.4261 3.0849,12.8471 3.4309,13.0211 C3.7789,13.1971 4.2029,13.0581 4.3789,12.7101 C4.4959,12.4781 4.4719,12.2141 4.3419,12.0111 L5.6909,10.6621 Z"/>
    <path fill="#FFF" d="M12.6225,3.0314 C12.2745,2.8554 11.8505,2.9954 11.6745,3.3424 C11.5795,3.5314 11.5775,3.7434 11.6505,3.9254 L10.3535,5.2234 C9.9595,4.9144 9.4645,4.7294 8.9265,4.7294 C8.2715,4.7294 7.6825,5.0014 7.2615,5.4384 L10.5275,8.7034 C10.9635,8.2834 11.2365,7.6934 11.2365,7.0394 C11.2365,6.5004 11.0505,6.0044 10.7415,5.6114 L12.0395,4.3144 C12.2055,4.3814 12.3845,4.3784 12.5435,4.3204 C13.9735,6.0814 14.2695,8.5514 13.2185,10.6314 C11.8865,13.2674 8.6945,14.5024 5.9345,13.4574 L6.2735,12.7864 L4.6885,13.1554 L5.3325,14.6494 L5.6915,13.9374 C8.7205,15.1164 12.2305,13.7754 13.6965,10.8734 C14.8475,8.5934 14.5155,5.8854 12.9385,3.9614 C13.1015,3.6164 12.9645,3.2044 12.6225,3.0314 Z"/>
  </g>
</svg>

<svg xmlns="http://www.w3.org/2000/svg" viewBox="0 0 16 16">
	<g fill="none">
		<path fill="#000" d="M8 16A8 8 0 1 1 8 0a8 8 0 0 1 0 16z"/>
		<path fill="#FFF" d="M5.69 10.662a2.3 2.3 0 0 0 1.425.492 2.3 2.3 0 0 0 1.664-.709l-.631-.632 1.005-1.005a.33.33 0 0 0 0-.466.332.332 0 0 0-.467 0L7.68 9.347 6.633 8.3l1.005-1.005a.33.33 0 0 0-.467-.466L6.167 7.832l-.653-.652a2.3 2.3 0 0 0-.71 1.664c0 .54.187 1.037.498 1.43L3.878 11.7a.721.721 0 0 0-.358.027 5.824 5.824 0 0 1-.722-6.368c1.364-2.7 4.612-3.914 7.41-2.777l-.348.69 1.584-.369-.643-1.495-.351.695C7.384.832 3.818 2.15 2.32 5.117a6.359 6.359 0 0 0 .798 6.962.704.704 0 0 0 1.26.631.704.704 0 0 0-.036-.699l1.349-1.349z"/>
		<path fill="#FFF" d="M12.623 3.031a.706.706 0 0 0-.973.894l-1.296 1.298a2.304 2.304 0 0 0-3.092.215l3.266 3.265a2.304 2.304 0 0 0 .213-3.092l1.299-1.297a.701.701 0 0 0 .504.006 5.838 5.838 0 0 1 .675 6.311c-1.332 2.636-4.524 3.871-7.284 2.826l.339-.67-1.585.368.643 1.494.36-.712c3.028 1.18 6.538-.162 8.005-3.064a6.375 6.375 0 0 0-.758-6.912.703.703 0 0 0-.316-.93z"/>
	</g>
</svg>
